build/img/svg/icon-vk.svg

<svg viewBox="0 0 32 17" fill="none" xmlns="http://www.w3.org/2000/svg">
<path fill-rule="evenodd" clip-rule="evenodd" d="M27.5406 10.8094C28.602 11.7823 29.7224 12.6976 30.6744 13.7686C31.095 14.2445 31.4931 14.7356 31.7977 15.288C32.2293 16.0731 31.8384 16.9371 31.0885 16.984L26.4266 16.982C25.2243 17.0757 24.2651 16.6213 23.4586 15.8496C22.8131 15.2324 22.2154 14.5756 21.5948 13.9376C21.3403 13.6768 21.074 13.4314 20.7559 13.2375C20.1195 12.8497 19.5671 12.9684 19.2034 13.5915C18.833 14.2253 18.749 14.927 18.7126 15.6333C18.6627 16.6638 18.3308 16.9348 17.2281 16.9819C14.8716 17.0863 12.6351 16.7516 10.5574 15.6356C8.72568 14.6517 7.30526 13.2628 6.06893 11.6905C3.66178 8.62871 1.81839 5.26434 0.161611 1.80571C-0.211316 1.02647 0.0614137 0.608187 0.977277 0.593382C2.49811 0.565647 4.01873 0.567621 5.54135 0.591408C6.15946 0.599896 6.56866 0.93271 6.80732 1.48089C7.63014 3.38016 8.63694 5.18715 9.90071 6.86208C10.2373 7.30801 10.5804 7.75393 11.0691 8.0678C11.6097 8.41532 12.0214 8.30014 12.2757 7.73479C12.4371 7.37631 12.5077 6.9902 12.5441 6.60625C12.6646 5.28536 12.6805 3.96673 12.4691 2.65048C12.3394 1.829 11.8465 1.29721 10.9733 1.14176C10.5278 1.0625 10.5941 0.906852 10.8098 0.668097C11.1846 0.256323 11.537 0 12.2395 0H17.5081C18.3376 0.153675 18.5218 0.503466 18.6353 1.28694L18.6398 6.78085C18.6308 7.08416 18.8012 7.9842 19.3832 8.18495C19.8489 8.32787 20.1559 7.97808 20.4354 7.70083C21.6968 6.44399 22.5972 4.95866 23.4015 3.42063C23.7584 2.74434 24.0653 2.04199 24.3627 1.34024C24.5831 0.819502 24.9289 0.563278 25.5538 0.574628L30.6245 0.578872C30.7748 0.578872 30.927 0.580945 31.0726 0.604337C31.9271 0.741036 32.1612 1.08609 31.8973 1.86937C31.4815 3.09828 30.6724 4.12238 29.8814 5.15123C29.0357 6.24965 28.1313 7.31048 27.2928 8.41542C26.5223 9.42442 26.5835 9.93302 27.5406 10.8094Z" fill="white"/>
</svg>

<svg viewBox="0 0 32 17" fill="none" xmlns="http://www.w3.org/2000/svg"><path fill-rule="evenodd" clip-rule="evenodd" d="M27.54 10.81c1.062.972 2.182 1.888 3.134 2.959.421.476.82.967 1.124 1.519.431.785.04 1.65-.71 1.696l-4.661-.002c-1.203.094-2.162-.36-2.968-1.132-.646-.618-1.244-1.274-1.864-1.912a4.338 4.338 0 00-.84-.7c-.636-.388-1.188-.27-1.552.354-.37.633-.454 1.335-.49 2.041-.05 1.03-.382 1.302-1.485 1.349-2.356.104-4.593-.23-6.67-1.346-1.832-.984-3.253-2.373-4.49-3.945C3.663 8.629 1.819 5.264.163 1.806-.211 1.026.062.608.977.593 2.498.566 4.02.568 5.541.591c.618.009 1.028.342 1.266.89.823 1.9 1.83 3.706 3.094 5.381.336.446.68.892 1.168 1.206.54.347.952.232 1.207-.333.161-.359.232-.745.268-1.129.12-1.32.136-2.64-.075-3.956-.13-.821-.622-1.353-1.496-1.508-.445-.08-.379-.235-.163-.474.375-.412.727-.668 1.43-.668h5.268c.83.154 1.014.503 1.127 1.287l.005 5.494c-.01.303.161 1.203.743 1.404.466.143.773-.207 1.052-.484 1.262-1.257 2.162-2.742 2.966-4.28.357-.677.664-1.379.962-2.08.22-.521.566-.778 1.19-.766l5.072.004c.15 0 .302.002.448.025.854.137 1.088.482.824 1.265-.415 1.23-1.225 2.253-2.016 3.282-.845 1.099-1.75 2.16-2.588 3.264-.77 1.01-.71 1.518.248 2.394z" fill="#fff"/></svg>
